icons/node-16.svg

<svg width="16" height="16" viewBox="0 0 16 16" fill="none" xmlns="http://www.w3.org/2000/svg">
<path d="M8 5C8.19698 5 8.39204 4.9612 8.57403 4.88582C8.75601 4.81044 8.92137 4.69995 9.06066 4.56066C9.19995 4.42137 9.31044 4.25601 9.38582 4.07403C9.4612 3.89204 9.5 3.69698 9.5 3.5C9.5 3.30302 9.4612 3.10796 9.38582 2.92597C9.31044 2.74399 9.19995 2.57863 9.06066 2.43934C8.92137 2.30005 8.75601 2.18956 8.57403 2.11418C8.39204 2.0388 8.19698 2 8 2C7.60218 2 7.22064 2.15804 6.93934 2.43934C6.65804 2.72064 6.5 3.10218 6.5 3.5C6.5 3.89782 6.65804 4.27936 6.93934 4.56066C7.22064 4.84196 7.60218 5 8 5ZM8 14C8.19698 14 8.39204 13.9612 8.57403 13.8858C8.75601 13.8104 8.92137 13.6999 9.06066 13.5607C9.19995 13.4214 9.31044 13.256 9.38582 13.074C9.4612 12.892 9.5 12.697 9.5 12.5C9.5 12.303 9.4612 12.108 9.38582 11.926C9.31044 11.744 9.19995 11.5786 9.06066 11.4393C8.92137 11.3001 8.75601 11.1896 8.57403 11.1142C8.39204 11.0388 8.19698 11 8 11C7.60218 11 7.22064 11.158 6.93934 11.4393C6.65804 11.7206 6.5 12.1022 6.5 12.5C6.5 12.8978 6.65804 13.2794 6.93934 13.5607C7.22064 13.842 7.60218 14 8 14Z" fill="black"/>
<path d="M1 11.5V4.5C1 4.03587 1.18451 3.59088 1.5127 3.2627C1.84088 2.93451 2.28587 2.75 2.75 2.75H4.5C4.91421 2.75 5.25 3.08579 5.25 3.5C5.25 3.91421 4.91421 4.25 4.5 4.25H2.75C2.6837 4.25 2.62013 4.27636 2.57324 4.32324C2.52636 4.37013 2.5 4.4337 2.5 4.5V11.5L2.50488 11.5488C2.51447 11.5969 2.53804 11.6416 2.57324 11.6768C2.62013 11.7236 2.6837 11.75 2.75 11.75H4.5C4.91421 11.75 5.25 12.0858 5.25 12.5C5.25 12.9142 4.91421 13.25 4.5 13.25H2.75C2.28587 13.25 1.84088 13.0655 1.5127 12.7373C1.18451 12.4091 1 11.9641 1 11.5ZM13.5 11.5V4.5C13.5 4.4337 13.4736 4.37013 13.4268 4.32324C13.3916 4.28804 13.3469 4.26447 13.2988 4.25488L13.25 4.25H11.5C11.0858 4.25 10.75 3.91421 10.75 3.5C10.75 3.08579 11.0858 2.75 11.5 2.75H13.25C13.7141 2.75 14.1591 2.93451 14.4873 3.2627C14.8155 3.59088 15 4.03587 15 4.5V11.5C15 11.9641 14.8155 12.4091 14.4873 12.7373C14.1591 13.0655 13.7141 13.25 13.25 13.25H11.5C11.0858 13.25 10.75 12.9142 10.75 12.5C10.75 12.0858 11.0858 11.75 11.5 11.75H13.25C13.3163 11.75 13.3799 11.7236 13.4268 11.6768C13.4736 11.6299 13.5 11.5663 13.5 11.5Z" fill="black"/>
</svg>

<svg xmlns="http://www.w3.org/2000/svg" width="16" height="16" viewBox="0 0 16 16"><path d="M8 5a1.507 1.507 0 0 0 1.061-.439 1.507 1.507 0 0 0 0-2.122 1.507 1.507 0 0 0-2.122 0 1.503 1.503 0 0 0 0 2.122C7.221 4.842 7.602 5 8 5Zm0 9a1.507 1.507 0 0 0 1.061-.439 1.507 1.507 0 0 0 0-2.122 1.507 1.507 0 0 0-2.122 0 1.503 1.503 0 0 0 0 2.122c.282.281.663.439 1.061.439Zm-7-2.5v-7a1.75 1.75 0 0 1 1.75-1.75H4.5a.75.75 0 0 1 0 1.5H2.75a.25.25 0 0 0-.25.25v7l.005.049a.246.246 0 0 0 .245.201H4.5a.75.75 0 0 1 0 1.5H2.75A1.75 1.75 0 0 1 1 11.5Zm12.5 0v-7a.25.25 0 0 0-.201-.245l-.049-.005H11.5a.75.75 0 0 1 0-1.5h1.75A1.75 1.75 0 0 1 15 4.5v7c0 .464-.184.909-.513 1.237a1.746 1.746 0 0 1-1.237.513H11.5a.75.75 0 0 1 0-1.5h1.75a.25.25 0 0 0 .25-.25Z"/></svg>
